X: 7524
T:Off She Goes
R:Jig
O:England
M:6/8
K:D
F2A G2B|ABc d3|F2A G2B|AFD E2D|\
F2A G2B|ABc d2e|f2d g2f|edc d3::
f2a afd |\
M:3/8
e4f2|\
M:6/8
g2b b2g|f2a f2d|e2cA3|\
f2a afd|g2b b2g|f2a f2d|e3 d3:|
